assets/img/bg-clients.svg

<svg width="525" height="769" viewBox="0 0 525 769" fill="none" xmlns="http://www.w3.org/2000/svg">
<path fill-rule="evenodd" clip-rule="evenodd" d="M96.1344 285.555C117.424 229.211 145.441 175.187 193.086 138.338C241.257 101.082 300.755 83.2709 361.577 80.2568C424.181 77.1544 489.114 85.0993 540.407 121.126C591.752 157.19 615.687 217.627 639.693 275.598C665.417 337.716 707.042 404.276 683.785 467.359C660.648 530.114 581.062 545.214 526.191 583.459C473.85 619.943 433.597 679.421 370.133 685.981C304.677 692.747 243.459 656.405 189.862 618.225C136.486 580.201 85.363 533.54 67.5908 470.461C50.2539 408.926 73.5374 345.358 96.1344 285.555Z" fill="url(#paint0_linear)"/>
<defs>
<linearGradient id="paint0_linear" x1="581.197" y1="590.491" x2="140.372" y2="-48.3211" gradientUnits="userSpaceOnUse">
<stop offset="0.197917" stop-color="#32C892"/>
<stop offset="0.932292" stop-color="#BEDF94"/>
</linearGradient>
</defs>
</svg>

<svg width="525" height="769" viewBox="0 0 525 769" fill="none" xmlns="http://www.w3.org/2000/svg"><path fill-rule="evenodd" clip-rule="evenodd" d="M96.134 285.555c21.29-56.344 49.307-110.368 96.952-147.217 48.171-37.256 107.669-55.067 168.491-58.081 62.604-3.103 127.537 4.842 178.83 40.869 51.345 36.064 75.28 96.501 99.286 154.472 25.724 62.118 67.349 128.678 44.092 191.761-23.137 62.755-102.723 77.855-157.594 116.1-52.341 36.484-92.594 95.962-156.058 102.522-65.456 6.766-126.674-29.576-180.271-67.756-53.376-38.024-104.499-84.685-122.271-147.764-17.337-61.535 5.946-125.103 28.543-184.906z" fill="url(#paint0_linear)"/><defs><linearGradient id="paint0_linear" x1="581.197" y1="590.491" x2="140.372" y2="-48.321" gradientUnits="userSpaceOnUse"><stop offset=".198" stop-color="#32C892"/><stop offset=".932" stop-color="#BEDF94"/></linearGradient></defs></svg>
